dist/svgs/unicons/line/cloud-showers.svg

<svg xmlns="http://www.w3.org/2000/svg" viewBox="0 0 24 24"><path d="M8 11a1 1 0 00-1 1v3a1 1 0 002 0v-3a1 1 0 00-1-1zm4 6a1 1 0 00-1 1v3a1 1 0 002 0v-3a1 1 0 00-1-1zm-4 0a1 1 0 00-1 1v3a1 1 0 002 0v-3a1 1 0 00-1-1zM18.42 6.22A7 7 0 005.06 8.11 4 4 0 002 12a4 4 0 001.34 3 1 1 0 101.32-1.5A2 2 0 014 12a2 2 0 012-2 1 1 0 001-1 5 5 0 019.73-1.61 1 1 0 00.78.67A3 3 0 0120 11a2.91 2.91 0 01-.74 2 1 1 0 001.48 1.34 5 5 0 00-2.32-8.08zM12 11a1 1 0 00-1 1v3a1 1 0 002 0v-3a1 1 0 00-1-1zm4 0a1 1 0 00-1 1v3a1 1 0 002 0v-3a1 1 0 00-1-1zm0 6a1 1 0 00-1 1v3a1 1 0 002 0v-3a1 1 0 00-1-1z"/></svg>

<svg xmlns="http://www.w3.org/2000/svg" viewBox="0 0 24 24"><path d="M8,11a1,1,0,0,0-1,1v3a1,1,0,0,0,2,0V12A1,1,0,0,0,8,11Zm4,6a1,1,0,0,0-1,1v3a1,1,0,0,0,2,0V18A1,1,0,0,0,12,17ZM8,17a1,1,0,0,0-1,1v3a1,1,0,0,0,2,0V18A1,1,0,0,0,8,17ZM18.42,6.22A7,7,0,0,0,5.06,8.11,4,4,0,0,0,2,12a4,4,0,0,0,1.34,3,1,1,0,1,0,1.32-1.5A2,2,0,0,1,4,12a2,2,0,0,1,2-2A1,1,0,0,0,7,9a5,5,0,0,1,9.73-1.61,1,1,0,0,0,.78.67A3,3,0,0,1,20,11a2.91,2.91,0,0,1-.74,2,1,1,0,0,0,1.48,1.34,5,5,0,0,0-2.32-8.08ZM12,11a1,1,0,0,0-1,1v3a1,1,0,0,0,2,0V12A1,1,0,0,0,12,11Zm4,0a1,1,0,0,0-1,1v3a1,1,0,0,0,2,0V12A1,1,0,0,0,16,11Zm0,6a1,1,0,0,0-1,1v3a1,1,0,0,0,2,0V18A1,1,0,0,0,16,17Z"/></svg>
